app/src/main/assets/symbols/food/restaurant.svg

<?xml version="1.0" encoding="UTF-8"?>
<svg version="1.1" viewBox="0 0 16 16" xmlns="http://www.w3.org/2000/svg" xmlns:cc="http://creativecommons.org/ns#" xmlns:dc="http://purl.org/dc/elements/1.1/" xmlns:rdf="http://www.w3.org/1999/02/22-rdf-syntax-ns#">
<metadata>
<rdf:RDF>
<cc:Work rdf:about="">
<dc:format>image/svg+xml</dc:format>
<dc:type rdf:resource="http://purl.org/dc/dcmitype/StillImage"/>
<dc:title/>
</cc:Work>
</rdf:RDF>
</metadata>
<rect width="16" height="16" fill="none" visibility="hidden"/>
<path transform="translate(1,1)" d="m4 0c-1 0-3 2-3 5s2.25 4 2.25 4l-0.5 5h2.5l-0.5-5s2.25-1 2.25-4-2-5-3-5zm4 0.75v6.25c0 1 1.75 1 1.75 2l-0.5 5h2.5l-0.5-5c0-1 1.75-1 1.75-2v-6.25c0-1-1-1-1 0v5.25c0 0.56329-1 0.56329-1 0v-5.25c0-1-1-1-1 0v5.25c0 0.52733-1 0.52733-1 0v-5.25c0-1-1-1-1 0z" fill="#734a08"/>
</svg>

<?xml version="1.0" encoding="UTF-8" standalone="no"?>
<svg
   xmlns:dc="http://purl.org/dc/elements/1.1/"
   xmlns:cc="http://creativecommons.org/ns#"
   xmlns:rdf="http://www.w3.org/1999/02/22-rdf-syntax-ns#"
   xmlns:svg="http://www.w3.org/2000/svg"
   xmlns="http://www.w3.org/2000/svg"
   version="1.1"
   width="16"
   height="16"
   viewBox="0 0 16 16"
   id="svg2">
  <metadata id="metadata8">
    <rdf:RDF>
      <cc:Work rdf:about="">
        <dc:format>image/svg+xml</dc:format>
        <dc:type rdf:resource="http://purl.org/dc/dcmitype/StillImage"/>
        <dc:title/>
      </cc:Work>
    </rdf:RDF>
  </metadata>
  <defs id="defs6"/>
  <rect width="16" height="16" x="0" y="0" id="canvas" style="fill:none;stroke:none;visibility:hidden"/>
  <path d="M 4,0 C 3,0 1,2 1,5 1,8 3.25,9 3.25,9 l -0.5,5 2.5,0 -0.5,-5 C 4.75,9 7,8 7,5 7,2 5,0 4,0 z M 8,0.75 8,7 c 0,1 1.75,1 1.75,2 l -0.5,5 2.5,0 -0.5,-5 C 11.25,8 13,8 13,7 l 0,-6.25 c 0,-1 -1,-1 -1,0 L 12,6 c 0,0.5632885 -1,0.5632884 -1,0 l 0,-5.25 c 0,-1 -1,-1 -1,0 L 10,6 C 10,6.5273339 9,6.5273339 9,6 L 9,0.75 c 0,-1 -1,-1 -1,0 z" id="restaurant" style="fill:#734a08;fill-opacity:1;stroke:none" transform="translate(1,1)"/>
</svg>
